icon-svg/lancia.svg

<svg xmlns="http://www.w3.org/2000/svg" fill="#44739e" viewBox="0 0 24 24"><path d="m10.281 10.518-.213.855h.439zm8.128.047a6.191 6.191 0 0 0-5.557-5.753l.276 3.256h-1.553l.207-3.268A6.148 6.148 0 0 0 8.1 6.4l-.389-.762-.888 1.9h.3A6.154 6.154 0 0 0 6.1 10.43l1.336-.03v1.2L6.1 11.426a6.155 6.155 0 0 0 1.341 3.385v1.578h.588v-.943a6.148 6.148 0 0 0 3.662 1.654l-.2-3.06h1.634l-.155 3.044a6.188 6.188 0 0 0 5.42-5.504l-1.239.1v-1.226Zm-10.973-.353-1.129.027a5.994 5.994 0 0 1 1.035-2.7h.094zm0 4.293a5.95 5.95 0 0 1-1.131-2.864l1.131.143zm.588-6.97h.656l-.5-.966a5.99 5.99 0 0 1 3.4-1.561l-.2 3.06H8.024Zm2.516 3.973h-.5a3.3 3.3 0 0 0-.1.456c0 .135.108.143.185.151v.085h-.462v-.089c.121-.027.154-.149.22-.413l.5-1.929h.063l.5 1.851c.1.378.136.5.243.491v.089h-.728v-.089c.141-.016.182-.022.182-.137a3 3 0 0 0-.103-.466m-2.353-1.6v-.085h.783v.088c-.157.011-.226.014-.226.325V11.9c0 .169.049.2.2.2.34 0 .467-.292.572-.687h.063l-.091.8h-1.3v-.089c.124-.024.193-.035.193-.251v-1.7c-.001-.243-.095-.251-.194-.262Zm-.163 5.275v-1.142H11.3l.187 2.85a5.96 5.96 0 0 1-3.463-1.705Zm4.817-5.275c-.163.033-.176.113-.176.281v2.075H12.6l-1-1.909v1.407c0 .254.046.323.212.35v.088H11.3v-.089c.135-.024.2-.049.2-.281v-1.665c-.127-.243-.162-.254-.19-.254v-.088h.474l.778 1.506v-1.068c0-.212-.024-.328-.207-.35v-.088h.483zM13 11.036c0-.717.323-1.266.8-1.266.2 0 .378.174.436.174s.08-.075.1-.163h.061v.825h-.055c-.08-.306-.268-.72-.525-.72-.328 0-.416.541-.416 1.137a2.56 2.56 0 0 0 .1.772.41.41 0 0 0 .342.307c.177 0 .345-.108.53-.434l.069.089c-.165.292-.339.513-.629.513-.53 0-.813-.577-.813-1.234m5.179.748a6 6 0 0 1-5.013 5.085l.146-2.828h3.841v-2.174zm-3.62-1.873v-.088h.787v.088c-.1.008-.213.011-.213.251v1.7c0 .226.089.238.213.251v.087h-.787v-.089c.122-.016.21-.033.21-.251v-1.7c-.002-.23-.11-.238-.212-.249Zm1.728 1.6h-.508a3.15 3.15 0 0 0-.1.456c0 .135.11.143.184.151v.082h-.455v-.089c.122-.027.152-.149.221-.413l.5-1.929h.061l.5 1.851c.1.378.138.5.246.491v.089h-.729v-.089c.141-.016.18-.022.18-.137a3.1 3.1 0 0 0-.102-.466Zm.866-1.241v-2.2h-3.837l-.257-3.044a6.008 6.008 0 0 1 5.141 5.332Zm-4.902-7.263a7.95 7.95 0 1 0 7.949 7.95 7.967 7.967 0 0 0-7.949-7.95m0 15.711a7.763 7.763 0 1 1 7.761-7.761 7.778 7.778 0 0 1-7.761 7.761m9.397-13.167q-9.4-6.675-18.8-.044c-.632 7.82 2.483 13.313 9.406 16.29 6.495-2.668 10.255-7.897 9.394-16.246m-9.4 13.821a8.417 8.417 0 1 1 8.415-8.415 8.433 8.433 0 0 1-8.412 8.415zm3.774-8.854-.209.855h.436z"/></svg>

<?xml version="1.0" encoding="UTF-8"?>
<svg width="24px" fill="#44739e" height="24px" viewBox="0 0 24 24" version="1.1" xmlns="http://www.w3.org/2000/svg" xmlns:xlink="http://www.w3.org/1999/xlink">
            <path d="m 10.281,10.518 -0.213,0.855 h 0.439 z m 8.128,0.047 A 6.191,6.191 0 0 0 12.852,4.812 l 0.276,3.256 H 11.575 L 11.782,4.8 A 6.148,6.148 0 0 0 8.1,6.4 L 7.711,5.638 6.823,7.538 h 0.3 A 6.154,6.154 0 0 0 6.1,10.43 L 7.436,10.4 v 1.2 L 6.1,11.426 a 6.155,6.155 0 0 0 1.341,3.385 v 1.578 h 0.588 v -0.943 a 6.148,6.148 0 0 0 3.662,1.654 l -0.2,-3.06 h 1.634 l -0.155,3.044 a 6.188,6.188 0 0 0 5.42,-5.504 l -1.239,0.1 V 10.454 Z M 7.436,10.212 6.307,10.239 a 5.994,5.994 0 0 1 1.035,-2.7 h 0.094 z m 0,4.293 A 5.948,5.948 0 0 1 6.305,11.641 l 1.131,0.143 z M 8.024,7.535 H 8.68 L 8.18,6.569 a 5.989,5.989 0 0 1 3.4,-1.561 l -0.2,3.06 H 8.024 Z m 2.516,3.973 h -0.5 a 3.305,3.305 0 0 0 -0.1,0.456 c 0,0.135 0.108,0.143 0.185,0.151 V 12.2 H 9.663 v -0.089 c 0.121,-0.027 0.154,-0.149 0.22,-0.413 l 0.5,-1.929 h 0.063 l 0.5,1.851 c 0.1,0.378 0.136,0.5 0.243,0.491 v 0 0.089 h -0.728 v -0.089 c 0.141,-0.016 0.182,-0.022 0.182,-0.137 A 2.985,2.985 0 0 0 10.54,11.508 Z M 8.187,9.908 V 9.823 H 8.97 V 9.911 C 8.813,9.922 8.744,9.925 8.744,10.236 V 11.9 c 0,0.169 0.049,0.2 0.2,0.2 0.34,0 0.467,-0.292 0.572,-0.687 h 0.063 l -0.091,0.8 h -1.3 V 12.124 C 8.312,12.1 8.381,12.089 8.381,11.873 v -1.7 C 8.38,9.93 8.286,9.922 8.187,9.911 Z M 8.024,15.183 V 14.041 H 11.3 l 0.187,2.85 A 5.961,5.961 0 0 1 8.024,15.186 Z m 4.817,-5.275 c -0.163,0.033 -0.176,0.113 -0.176,0.281 v 2.075 H 12.6 l -1,-1.909 v 0 1.407 c 0,0.254 0.046,0.323 0.212,0.35 V 12.2 H 11.3 v -0.089 c 0.135,-0.024 0.2,-0.049 0.2,-0.281 V 10.165 C 11.373,9.922 11.338,9.911 11.31,9.911 V 9.823 h 0.474 l 0.778,1.506 v 0 -1.068 c 0,-0.212 -0.024,-0.328 -0.207,-0.35 V 9.823 h 0.483 z M 13,11.036 c 0,-0.717 0.323,-1.266 0.8,-1.266 0.2,0 0.378,0.174 0.436,0.174 0.058,0 0.08,-0.075 0.1,-0.163 h 0.061 v 0.825 h -0.055 c -0.08,-0.306 -0.268,-0.72 -0.525,-0.72 -0.328,0 -0.416,0.541 -0.416,1.137 a 2.558,2.558 0 0 0 0.1,0.772 0.41,0.41 0 0 0 0.342,0.307 c 0.177,0 0.345,-0.108 0.53,-0.434 l 0.069,0.089 C 14.277,12.049 14.103,12.27 13.813,12.27 13.283,12.27 13,11.693 13,11.036 Z m 5.179,0.748 a 6,6 0 0 1 -5.013,5.085 l 0.146,-2.828 h 3.841 v -2.174 0 z M 14.559,9.911 V 9.823 h 0.787 v 0.088 c -0.1,0.008 -0.213,0.011 -0.213,0.251 v 1.7 c 0,0.226 0.089,0.238 0.213,0.251 V 12.2 h -0.787 v -0.089 c 0.122,-0.016 0.21,-0.033 0.21,-0.251 v -1.7 C 14.767,9.93 14.659,9.922 14.557,9.911 Z m 1.728,1.6 h -0.508 a 3.148,3.148 0 0 0 -0.1,0.456 c 0,0.135 0.11,0.143 0.184,0.151 V 12.2 h -0.455 v -0.089 c 0.122,-0.027 0.152,-0.149 0.221,-0.413 l 0.5,-1.929 h 0.061 l 0.5,1.851 c 0.1,0.378 0.138,0.5 0.246,0.491 v 0 0.089 h -0.729 v -0.089 c 0.141,-0.016 0.18,-0.022 0.18,-0.137 A 3.074,3.074 0 0 0 16.285,11.508 Z M 17.153,10.27 V 8.07 H 13.316 L 13.059,5.026 A 6.008,6.008 0 0 1 18.2,10.358 Z M 12.251,3.007 a 7.95,7.95 0 1 0 7.949,7.95 7.967,7.967 0 0 0 -7.949,-7.95 z m 0,15.711 a 7.763,7.763 0 1 1 7.761,-7.761 7.778,7.778 0 0 1 -7.761,7.761 z M 21.648,5.551 q -9.4,-6.675 -18.8,-0.044 c -0.632,7.82 2.483,13.313 9.406,16.29 6.495,-2.668 10.255,-7.897 9.394,-16.246 z m -9.4,13.821 a 8.417,8.417 0 1 1 8.415,-8.415 8.433,8.433 0 0 1 -8.412,8.415 z m 3.774,-8.854 -0.209,0.855 h 0.436 z"/>

</svg>
